public/common/form/small_green_we.svg

<svg width="137" height="86" viewBox="0 0 137 86" fill="none" xmlns="http://www.w3.org/2000/svg">
<path d="M14.7544 71.2928C6.60531 71.2928 0 64.6915 0 56.5473L0 14.7455C0 6.60133 6.60531 0 14.7544 0L121.391 0C129.54 0 136.145 6.60133 136.145 14.7455V71.2928H14.7544Z" fill="#34D186"/>
<path d="M16.9811 16.1107H26.8121L34.8625 38.8741L43.5248 16.1107H49.5378L58.0422 38.6176L66.1005 16.1107H75.9946L61.3863 56.1212H55.0219L46.4859 33.3223L37.6933 56.1212H31.3999L16.9811 16.1107Z" fill="white"/>
<path d="M121.794 39.0201H89.525C89.9909 41.865 91.2346 44.1259 93.26 45.8029C95.2815 47.4838 97.8636 48.3203 101.006 48.3203C104.761 48.3203 107.983 47.0103 110.683 44.3864L119.144 48.3598C117.036 51.3507 114.509 53.5643 111.564 54.9966C108.618 56.4329 105.124 57.1471 101.077 57.1471C94.7959 57.1471 89.683 55.1663 85.7348 51.2087C81.7866 47.251 79.8125 42.2912 79.8125 36.333C79.8125 30.2288 81.7827 25.1585 85.719 21.1258C89.6553 17.0932 94.5905 15.0769 100.529 15.0769C106.834 15.0769 111.959 17.0932 115.911 21.1258C119.859 25.1585 121.833 30.4853 121.833 37.1024L121.794 39.0201ZM111.749 31.1166C111.086 28.8872 109.779 27.0722 107.825 25.6754C105.871 24.2785 103.604 23.5801 101.026 23.5801C98.2268 23.5801 95.7671 24.3654 93.6548 25.9318C92.3282 26.9143 91.1004 28.6426 89.9672 31.1166H111.749Z" fill="white"/>
<path d="M130.938 76.1146C132.217 76.1146 133.31 76.5763 134.226 77.5035C135.142 78.4268 135.596 79.5475 135.596 80.8654C135.596 82.1635 135.142 83.2723 134.238 84.1877C133.334 85.1031 132.252 85.5609 130.993 85.5609C129.698 85.5609 128.592 85.0953 127.676 84.1601C126.76 83.2249 126.306 82.0925 126.306 80.7588C126.306 79.4764 126.756 78.3834 127.664 77.4759C128.569 76.5684 129.658 76.1146 130.938 76.1146Z" fill="#34D186"/>
</svg>

<svg width="137" height="86" fill="none" xmlns="http://www.w3.org/2000/svg"><path d="M14.754 71.293C6.605 71.293 0 64.69 0 56.547V14.746C0 6.6 6.605 0 14.754 0h106.637c8.149 0 14.754 6.601 14.754 14.745v56.548H14.755z" fill="#34D186"/><path d="M16.981 16.11h9.831l8.05 22.764 8.663-22.763h6.013l8.504 22.507L66.1 16.11h9.895L61.386 56.12h-6.364l-8.536-22.799-8.793 22.8H31.4L16.98 16.11zM121.794 39.02H89.525c.466 2.845 1.71 5.106 3.735 6.783 2.021 1.68 4.604 2.517 7.746 2.517 3.755 0 6.977-1.31 9.677-3.934l8.461 3.974c-2.108 2.99-4.635 5.204-7.58 6.637-2.946 1.436-6.44 2.15-10.487 2.15-6.281 0-11.394-1.98-15.342-5.938-3.948-3.958-5.922-8.918-5.922-14.876 0-6.104 1.97-11.174 5.906-15.207 3.936-4.033 8.872-6.05 14.81-6.05 6.305 0 11.43 2.017 15.382 6.05 3.948 4.032 5.922 9.36 5.922 15.976l-.039 1.918zm-10.045-7.903c-.663-2.23-1.97-4.045-3.924-5.442-1.954-1.396-4.221-2.095-6.799-2.095-2.8 0-5.259.785-7.371 2.352-1.327.982-2.555 2.71-3.688 5.185h21.782z" fill="#fff"/><path d="M130.938 76.115c1.279 0 2.372.461 3.288 1.389.916.923 1.37 2.043 1.37 3.361 0 1.299-.454 2.407-1.358 3.323-.904.915-1.986 1.373-3.245 1.373-1.295 0-2.401-.466-3.317-1.4-.916-.936-1.37-2.069-1.37-3.402 0-1.283.45-2.376 1.358-3.283.905-.908 1.994-1.361 3.274-1.361z" fill="#34D186"/></svg>
